X: 165
T: Aşkefzâ Seyir
C: Erol Bingöl
O: Turkey
F: http://compmusic.upf.edu/node/140
N: askefza--seyir--devrihindi--1--erol_bingol
N: makam= askefza
N: form= seyir
N: usul= devrihindi = 7/4
M: 7/4
L: 1/16
K: C    
Q: 1/4=120
%%MIDI tuningsystem comma53
A2 B2 c2 d3c e4  | d2 e2 fe e8  | e2 f2 g2 a2 ba a4  | \
w:   |   |   | 
c'2 b2 a2 gf fe e4  | 
w:   | 
e2 d2 f2 e2 d2 c2 B2  | A2 B2 BA A8  | \
w:   |   | 
A2 G2 A2 c2 B2 A2 G2  | AB GF FE E8  | 
w:   |   | 
|


